public/images/employers/labcorp.svg

<svg enable-background="new -12.076 -0.044 40 40" height="40" viewBox="-12.076 -.044 40 40" width="40" xmlns="http://www.w3.org/2000/svg"><path d="m15.848 38.298h-1.738c.578-.403 1.157-.807 1.737-1.248zm-15.848-36.684h12.192c-3.147 2.054-6.946 4.585-12.192 8.62zm13.64 34.777c-.904.659-1.771 1.283-2.678 1.907h-9.116c.83-.478 1.917-1.137 3.038-1.907zm-5.101-2.532h6.188c.397.33.759.658 1.085.953l-.688.514h-8.685c.653-.476 1.375-.954 2.1-1.467zm1.482-1.064c2.136-1.577 4.271-3.118 5.826-4.292v3.925c-.652-.587-1.557-1.355-2.389-2.091-.507.367-.979.733-1.521 1.103.471.401 1.014.879 1.557 1.355zm5.827-23.478v14.931c-2.57-2.201-6.261-5.283-9.843-8.218-.361.257-1.085.808-1.52 1.138.578.478.832.697 1.267 1.027h-2.605c2.787-2.201 5.753-4.402 12.701-8.878zm-13.604 11.665c-.397-.366-.869-.659-1.268-.989-.433.366-.542.44-.976.806v-.035c.614-.515 1.229-1.028 1.81-1.505h5.246c.724.587 1.375 1.174 2.063 1.726h-6.875zm4.884 3.926h6.657c.65.55 1.193 1.025 1.772 1.504l-.397.33h-5.862c-.723-.623-1.447-1.21-2.17-1.834zm-7.128 12.326v-15.701c3.69 2.861 7.272 5.833 10.492 8.656.543-.402 1.014-.732 1.521-1.101-.507-.438-.978-.88-1.483-1.284h3.221c-4.019 3.048-10.351 7.596-13.751 9.43zm5.826-13.39c-.725-.624-1.484-1.21-2.244-1.797h6.802c.725.624 1.484 1.21 2.136 1.797zm.723-16.214c.868-.587 1.737-1.174 2.604-1.761h6.694v1.284c-.255.146-.508.33-.761.477zm-1.485 1.064h8.357c-.903.587-1.772 1.137-2.641 1.724h-8.03c.76-.587 1.556-1.174 2.314-1.724zm-5.064 9.758v-4.879c.94.733 1.918 1.504 3.003 2.421.615-.478.904-.697 1.521-1.174-.361-.294-.688-.55-1.014-.808h2.172c-1.992 1.468-3.836 2.936-5.682 4.44zm1.339-6.97h7.888c-.688.476-1.375.989-2.099 1.467h-4.957c-.47-.403-.903-.734-1.339-1.064.181-.147.325-.256.507-.403zm14.435-9.868h.073v1.979c-.399-.257-.761-.477-1.557-1.027-.507.294-.832.514-1.521.954 1.049.659 1.193.771 1.989 1.283h-4.05c1.737-1.098 3.258-2.089 5.066-3.189z" fill="#007ea2"/></svg>

<?xml version="1.0" encoding="utf-8"?>
<!-- Generator: Adobe Illustrator 16.0.0, SVG Export Plug-In . SVG Version: 6.00 Build 0)  -->
<!DOCTYPE svg PUBLIC "-//W3C//DTD SVG 1.1//EN" "http://www.w3.org/Graphics/SVG/1.1/DTD/svg11.dtd">
<svg version="1.1" id="Layer_1" xmlns="http://www.w3.org/2000/svg" xmlns:xlink="http://www.w3.org/1999/xlink" x="0px" y="0px"
	 width="40px" height="40px" viewBox="-12.076 -0.044 40 40" enable-background="new -12.076 -0.044 40 40" xml:space="preserve">
<path fill="#007EA2" d="M15.848,38.298H14.11c0.578-0.403,1.157-0.807,1.737-1.248L15.848,38.298 M0,1.614h12.192
	C9.045,3.668,5.246,6.199,0,10.234V1.614z M13.64,36.391c-0.904,0.659-1.771,1.283-2.678,1.907H1.846
	c0.83-0.478,1.917-1.137,3.038-1.907H13.64z M8.539,33.859h6.188c0.397,0.33,0.759,0.658,1.085,0.953l-0.688,0.514H6.439
	C7.092,34.85,7.814,34.372,8.539,33.859z M10.021,32.795c2.136-1.577,4.271-3.118,5.826-4.292v3.925
	c-0.652-0.587-1.557-1.355-2.389-2.091c-0.507,0.367-0.979,0.733-1.521,1.103c0.471,0.401,1.014,0.879,1.557,1.355H10.021z
	 M15.848,9.317v14.931c-2.57-2.201-6.261-5.283-9.843-8.218c-0.361,0.257-1.085,0.808-1.52,1.138
	c0.578,0.478,0.832,0.697,1.267,1.027H3.147C5.934,15.994,8.9,13.793,15.848,9.317z M2.244,20.982
	c-0.397-0.366-0.869-0.659-1.268-0.989C0.543,20.359,0.434,20.433,0,20.799v-0.035c0.614-0.515,1.229-1.028,1.81-1.505h5.246
	c0.724,0.587,1.375,1.174,2.063,1.726H2.244V20.982z M7.128,24.908h6.657c0.65,0.55,1.193,1.025,1.772,1.504l-0.397,0.33H9.298
	C8.575,26.119,7.851,25.532,7.128,24.908z M0,37.234V21.533c3.69,2.861,7.272,5.833,10.492,8.656
	c0.543-0.402,1.014-0.732,1.521-1.101c-0.507-0.438-0.978-0.88-1.483-1.284h3.221C9.732,30.852,3.4,35.4,0,37.234z M5.826,23.844
	c-0.725-0.624-1.484-1.21-2.244-1.797h6.802c0.725,0.624,1.484,1.21,2.136,1.797H5.826z M6.549,7.63
	c0.868-0.587,1.737-1.174,2.604-1.761h6.694v1.284c-0.255,0.146-0.508,0.33-0.761,0.477H6.549z M5.064,8.694h8.357
	c-0.903,0.587-1.772,1.137-2.641,1.724H2.75C3.51,9.831,4.306,9.244,5.064,8.694z M0,18.452v-4.879
	c0.94,0.733,1.918,1.504,3.003,2.421c0.615-0.478,0.904-0.697,1.521-1.174c-0.361-0.294-0.688-0.55-1.014-0.808h2.172
	C3.69,15.48,1.846,16.948,0,18.452z M1.339,11.482h7.888c-0.688,0.476-1.375,0.989-2.099,1.467H2.171
	c-0.47-0.403-0.903-0.734-1.339-1.064C1.013,11.738,1.157,11.629,1.339,11.482z M15.774,1.614h0.073v1.979
	c-0.399-0.257-0.761-0.477-1.557-1.027c-0.507,0.294-0.832,0.514-1.521,0.954c1.049,0.659,1.193,0.771,1.989,1.283h-4.05
	C12.445,3.705,13.966,2.714,15.774,1.614z"/>
</svg>
